usr/share/icons/biglinux-icons-material-dark/22/actions/nextfuzzy.svg

<svg xmlns="http://www.w3.org/2000/svg" viewBox="0 0 22 22">
  <defs id="defs3051">
    <style type="text/css" id="current-color-scheme">
      .ColorScheme-Text {
        color:#dedede;
      }
      </style>
  </defs>
 <path 
     style="fill:currentColor;fill-opacity:1;stroke:none" 
     d="M 4 3 L 4 17 L 3 17 L 3 18 L 4 18 L 4 19 L 5 19 L 5 18 L 12 18 L 12 17 L 5 17 L 5 3 L 4 3 z M 10.5 3 C 9.52778 3 8.6199987 3.3409388 7.9804688 3.9804688 C 7.3409388 4.6199988 7 5.52778 7 6.5 L 9 6.5 C 9 5.97222 9.1590713 5.6300012 9.3945312 5.3945312 C 9.6300013 5.1590613 9.97222 5 10.5 5 C 11.02778 5 11.369999 5.1590612 11.605469 5.3945312 C 11.840939 5.6300012 12 5.97222 12 6.5 C 12 6.95834 11.909603 7.1533219 11.789062 7.3261719 C 11.267792 7.8520819 10.637349 8.3017219 10.130859 8.7324219 C 9.5591894 9.1616519 9 9.72438 9 10.5 L 9 11 L 11 11 L 11 10.5 C 11.71082 9.77234 12.770258 9.1378431 13.429688 8.4707031 C 13.777848 7.9716731 14 7.29167 14 6.5 C 14 5.52778 13.659071 4.6199988 13.019531 3.9804688 C 12.380001 3.3409387 11.47222 3 10.5 3 z M 17 3 L 17 12 L 18 12 L 18 3 L 17 3 z M 15.707031 12 L 15 12.707031 L 17.292969 15 L 13 15 L 13 16 L 17.292969 16 L 15 18.292969 L 15.707031 19 L 19 15.707031 L 19.207031 15.5 L 19 15.292969 L 15.707031 12 z M 9 13 L 9 15 L 11 15 L 11 13 L 9 13 z "
     class="ColorScheme-Text"
     />
 </svg>

<svg xmlns="http://www.w3.org/2000/svg" viewBox="0 0 22 22">
<defs id="defs3051">
<style id="current-color-scheme" type="text/css">
.ColorScheme-Text{color:#dedede}
</style>
</defs>
<path d="M4 3v14H3v1h1v1h1v-1h7v-1H5V3zm6.5 0c-.972 0-1.88.34-2.52.98S7 5.528 7 6.5h2c0-.528.16-.87.395-1.105C9.63 5.159 9.972 5 10.5 5s.87.16 1.105.395c.236.235.395.577.395 1.105 0 .458-.09.653-.21.826-.522.526-1.153.976-1.66 1.406C9.56 9.162 9 9.724 9 10.5v.5h2v-.5c.71-.728 1.77-1.362 2.43-2.03.348-.498.57-1.178.57-1.97 0-.972-.34-1.88-.98-2.52S11.472 3 10.5 3M17 3v9h1V3zm-1.293 9-.707.707L17.293 15H13v1h4.293L15 18.293l.707.707L19 15.707l.207-.207-.207-.207zM9 13v2h2v-2z" class="ColorScheme-Text" style="fill:currentColor;fill-opacity:1;stroke:none"/>
</svg>
